X:187
T:Suggar Candie. Ru2.187
%%VWML:RutherfordVol2-2249-p94-0
F:http://www.vwml.org/record/RutherfordVol2/2249/p94
Z:vmp.Ruairidh Greig 2015 www.village-music-project.org.uk
M:C|
L:1/8
Q:1/4=100
K:C
e>dcg (a/g/f/e/) gc|c(e/f/) gcA2f2|e>dcg (a/g/f/e/) gc|B/c/d dg BG c2:|
|:AcBd cede|ce/f/ gcA2f2|AcBd ceec|B/c/d dg BGc2"Rpt added":|
W:Cast off and turn your Partner .| cast
W:off again and turn your Partner :| Lead
W:up to the Top foot it and Cast off .|. Right
W:Hand and Left at Top :|
T:Jakie Stewart's Reel. Ru2.188
B:RUTHERFORD Complete Collection of 200 Country Dances Vol.2; 1759.
Z:vmp.Ruairidh Greig 2015 www.village-music-project.org.uk
M:C|
L:1/8
R:Reel
Q:1/4=120
K:Em
B2 EG/A/ BGEG|AFDF dFDF|BGEG eg/a/ ba|gef^d e/e/ee2:|
|:e>gfe B/B/B eB|d>efe d/d/d fd|e>gfe dBAF|G>BAF"Rpt added" E/E/EE2:|
W:The first Man set to the 2d. Woman and
W:turn her .| The first Woman the same with
W:the 2d. Man cross over 2 Couples Lead up
W:to the Top foot it and cast off Foot it
W:Corners and turn Lead out and turn your
W:Partner
